X: 44
T: The Queen's Night-Cap
R: hornpipe, reel
M: 2/4
L: 1/8
Z: 2011 John Chambers <jc:trillian.mit.edu>
B: Charles & Samuel Thompson eds "Twenty Four Country Dances", London 1774, p.22 #2
K: F
% - - - - - - - - - - - - - - - - - - - - - - - - -
|: f>ff>f | Tf3d | cAGF | G2AB |\
   cfff | f2ed | eg =Bd | c4 :|
|: gggg | Tg2a2 | gfed | cBAG |\
   AFcA | f2ed | cBAG | F4 :|
% - - - - - - - - Dance description - - - - - - - -
%%begintext align
%% Hands all four a cross .|. and back again :|. Cross
%% over one Cu: lead thro the 3d Cu: .|: right Hands
%% and left :|:
%%endtext

%%sep 1 1 500
